; G-Code generated by Simplify3D(R) Version 3.1.1
; Dec 24, 2019 at 3:22:29 PM
; Settings Summary
;   processName,MPSM - BRUTUS
;   applyToModels,OBD2 dongle cover,OBD2 dongle enclosure,OBD2 screen enclosure
;   profileName,MPSM - BRUTUS (modified)
;   profileVersion,2015-05-01 08:00:00
;   baseProfile,Default
;   printMaterial,ABS
;   printQuality,Fast
;   printExtruders,
;   extruderName,Primary Extruder
;   extruderToolheadNumber,0
;   extruderDiameter,0.8
;   extruderAutoWidth,1
;   extruderWidth,0.96
;   extrusionMultiplier,1
;   extruderUseRetract,1
;   extruderRetractionDistance,2.5
;   extruderExtraRestartDistance,0.6
;   extruderRetractionZLift,0.5
;   extruderRetractionSpeed,2400
;   extruderUseCoasting,0
;   extruderCoastingDistance,0.2
;   extruderUseWipe,0
;   extruderWipeDistance,5
;   primaryExtruder,0
;   layerHeight,0.4
;   topSolidLayers,4
;   bottomSolidLayers,2
;   perimeterOutlines,2
;   printPerimetersInsideOut,1
;   startPointOption,2
;   startPointOriginX,0
;   startPointOriginY,0
;   startPointOriginZ,300
;   sequentialIslands,0
;   spiralVaseMode,0
;   firstLayerHeightPercentage,90
;   firstLayerWidthPercentage,100
;   firstLayerUnderspeed,0.5
;   useRaft,0
;   raftExtruder,0
;   raftLayers,3
;   raftOffset,3
;   raftSeparationDistance,0.14
;   raftInfill,85
;   disableRaftBaseLayers,0
;   useSkirt,1
;   skirtExtruder,0
;   skirtLayers,1
;   skirtOutlines,2
;   skirtOffset,10
;   usePrimePillar,0
;   primePillarExtruder,999
;   primePillarWidth,12
;   primePillarLocation,7
;   primePillarSpeedMultiplier,1
;   useOozeShield,0
;   oozeShieldExtruder,999
;   oozeShieldOffset,2
;   oozeShieldOutlines,1
;   oozeShieldSidewallShape,1
;   oozeShieldSidewallAngle,30
;   oozeShieldSpeedMultiplier,1
;   infillExtruder,0
;   internalInfillPattern,Fast Honeycomb
;   externalInfillPattern,Rectilinear
;   infillPercentage,20
;   outlineOverlapPercentage,15
;   infillExtrusionWidthPercentage,100
;   minInfillLength,5
;   infillLayerInterval,1
;   infillAngles,0
;   overlapInfillAngles,0
;   generateSupport,1
;   supportExtruder,0
;   supportInfillPercentage,25
;   supportExtraInflation,0
;   denseSupportLayers,0
;   denseSupportInfillPercentage,70
;   supportLayerInterval,1
;   supportHorizontalPartOffset,0.3
;   supportUpperSeparationLayers,1
;   supportLowerSeparationLayers,1
;   supportType,0
;   supportGridSpacing,4
;   maxOverhangAngle,45
;   supportAngles,0
;   temperatureName,Primary Extruder,Bed
;   temperatureNumber,0,1
;   temperatureSetpointCount,1,1
;   temperatureSetpointLayers,1,1
;   temperatureSetpointTemperatures,225,65
;   temperatureStabilizeAtStartup,1,1
;   temperatureHeatedBed,0,1
;   temperatureRelayBetweenLayers,0,0
;   temperatureRelayBetweenLoops,0,0
;   fanLayers,1
;   fanSpeeds,0
;   blipFanToFullPower,0
;   adjustSpeedForCooling,1
;   minSpeedLayerTime,15
;   minCoolingSpeedSlowdown,20
;   increaseFanForCooling,0
;   minFanLayerTime,45
;   maxCoolingFanSpeed,100
;   increaseFanForBridging,0
;   bridgingFanSpeed,100
;   use5D,1
;   relativeEdistances,0
;   allowEaxisZeroing,1
;   independentExtruderAxes,0
;   includeM10123,0
;   stickySupport,1
;   applyToolheadOffsets,0
;   gcodeXoffset,0
;   gcodeYoffset,0
;   gcodeZoffset,0
;   overrideMachineDefinition,0
;   machineTypeOverride,0
;   strokeXoverride,200
;   strokeYoverride,200
;   strokeZoverride,200
;   originOffsetXoverride,0
;   originOffsetYoverride,0
;   originOffsetZoverride,0
;   homeXdirOverride,-1
;   homeYdirOverride,-1
;   homeZdirOverride,-1
;   flipXoverride,1
;   flipYoverride,-1
;   flipZoverride,1
;   toolheadOffsets,0,0|0,0|0,0|0,0|0,0|0,0
;   overrideFirmwareConfiguration,0
;   firmwareTypeOverride,RepRap (Marlin/Repetier/Sprinter)
;   GPXconfigOverride,r2
;   baudRateOverride,115200
;   overridePrinterModels,0
;   printerModelsOverride
;   startingGcode,G21;(metric values),G90;(absolute positioning),M82;(set extruder to absolute mode),M107;(start with the fan off),G28;(Home the printer),G29;(perform bed mesh),G92 E0;(Reset the extruder to 0),G0 Z5 E3 F500;(Move up and prime the nozzle),G92 E0;(Zero the extruder)
;   layerChangeGcode,
;   retractionGcode,
;   toolChangeGcode,
;   endingGcode,G91; (relative pos),G0 Z10;(move up 10mm),G90; (back to absolute),G0 X0; (move to X=0),M190 S0;(Turn off heat bed, don't wait.),G92 E10;(Set extruder to 10),G1 E7 F200;(retract 3mm),M104 S0;(Turn off nozzle, don't wait),M84;(Turn off stepper motors.)
;   exportFileFormat,gcode
;   celebration,0
;   celebrationSong,Random Song
;   postProcessing,curl -k -H "X-Api-Key: 13571FCE9B8E4D33A59C415B39E31D38" -F "select=false" -F "print=false" -F "file=@[output_filepath]" "http://octopi.home/api/files/local" {STRIP "; postProcessing"}
;   defaultSpeed,3000
;   outlineUnderspeed,0.5
;   solidInfillUnderspeed,0.8
;   supportUnderspeed,0.8
;   rapidXYspeed,4800
;   rapidZspeed,1002
;   minBridgingArea,50
;   bridgingExtraInflation,0
;   bridgingExtrusionMultiplier,1
;   bridgingSpeedMultiplier,1
;   filamentDiameter,1.75
;   filamentPricePerKg,23
;   filamentDensity,1.25
;   useMinPrintHeight,0
;   minPrintHeight,0
;   useMaxPrintHeight,0
;   maxPrintHeight,0
;   useDiaphragm,0
;   diaphragmLayerInterval,20
;   robustSlicing,1
;   mergeAllIntoSolid,0
;   onlyRetractWhenCrossingOutline,1
;   retractBetweenLayers,1
;   useRetractionMinTravel,0
;   retractionMinTravel,3
;   retractWhileWiping,0
;   onlyWipeOutlines,1
;   avoidCrossingOutline,0
;   maxMovementDetourFactor,3
;   toolChangeRetractionDistance,12
;   toolChangeExtraRestartDistance,-0.5
;   toolChangeRetractionSpeed,600
;   allowThinWallGapFill,1
;   thinWallAllowedOverlapPercentage,10
;   horizontalSizeCompensation,0
G90
M82
M106 S0
M140 S65
M190 S65
M104 S225 T0
M109 S225 T0
G21;(metric values)
G90;(absolute positioning)
M82;(set extruder to absolute mode)
M107;(start with the fan off)
G28;(Home the printer)
G29;(perform bed mesh)
G92 E0;(Reset the extruder to 0)
G0 Z5 E3 F500;(Move up and prime the nozzle)
G92 E0;(Zero the extruder)
G92 E0
G1 E-2.5000 F2400
G1 Z0.860 F1002
; layer 1, Z = 0.36
T0
; tool H0.400 W0.960
; skirt
G1 X31.041 Y60.817 F4800
G1 Z0.360 F1002
G1 E0.6000 F720
G92 E0
G1 X31.105 Y60.787 E0.0113 F1500
G1 X32.078 Y60.384 E0.1794
G1 X32.145 Y60.360 E0.1907
G1 X33.903 Y59.827 E0.4839
G1 X33.971 Y59.809 E0.4952
G1 X35.004 Y59.604 E0.6633
G1 X35.074 Y59.594 E0.6746
G1 X36.640 Y59.439 E0.9259
G1 X36.675 Y59.437 E0.9315
G1 X37.201 Y59.411 E1.0156
G1 X37.237 Y59.410 E1.0213
G1 X137.769 Y59.411 E17.0712
G1 X137.805 Y59.411 E17.0768
G1 X138.331 Y59.437 E17.1609
G1 X138.366 Y59.440 E17.1665
G1 X139.926 Y59.594 E17.4168
G1 X139.996 Y59.604 E17.4281
G1 X141.029 Y59.809 E17.5962
G1 X141.097 Y59.827 E17.6075
G1 X142.855 Y60.360 E17.9008
G1 X142.922 Y60.384 E17.9120
G1 X143.895 Y60.787 E18.0801
G1 X143.959 Y60.817 E18.0914
G1 X145.579 Y61.683 E18.3848
G1 X145.640 Y61.719 E18.3961
G1 X146.516 Y62.305 E18.5643
G1 X146.573 Y62.347 E18.5756
G1 X147.993 Y63.513 E18.8690
G1 X148.046 Y63.560 E18.8802
G1 X148.790 Y64.304 E19.0483
G1 X148.837 Y64.357 E19.0596
G1 X150.003 Y65.777 E19.3529
G1 X150.045 Y65.834 E19.3642
G1 X150.631 Y66.710 E19.5324
G1 X150.667 Y66.771 E19.5437
G1 X151.533 Y68.391 E19.8371
G1 X151.563 Y68.455 E19.8484
G1 X151.966 Y69.428 E20.0165
G1 X151.990 Y69.495 E20.0278
G1 X152.523 Y71.253 E20.3210
G1 X152.541 Y71.321 E20.3323
G1 X152.746 Y72.354 E20.5004
G1 X152.756 Y72.424 E20.5117
G1 X152.911 Y73.990 E20.7630
G1 X152.913 Y74.025 E20.7686
G1 X152.939 Y74.551 E20.8527
G1 X152.940 Y74.587 E20.8583
G1 X152.940 Y107.613 E26.1310
G1 X152.939 Y107.649 E26.1367
G1 X152.913 Y108.175 E26.2207
G1 X152.911 Y108.210 E26.2264
G1 X152.756 Y109.776 E26.4777
G1 X152.746 Y109.846 E26.4889
G1 X152.540 Y110.879 E26.6570
G1 X152.523 Y110.947 E26.6683
G1 X151.990 Y112.705 E26.9616
G1 X151.966 Y112.772 E26.9729
G1 X151.563 Y113.745 E27.1410
G1 X151.533 Y113.809 E27.1523
G1 X150.667 Y115.429 E27.4456
G1 X150.631 Y115.490 E27.4569
G1 X150.045 Y116.366 E27.6252
G1 X150.003 Y116.423 E27.6365
G1 X148.837 Y117.843 E27.9298
G1 X148.790 Y117.896 E27.9411
G1 X148.046 Y118.640 E28.1091
G1 X147.993 Y118.687 E28.1204
G1 X146.573 Y119.853 E28.4137
G1 X146.516 Y119.895 E28.4250
G1 X145.640 Y120.481 E28.5933
G1 X145.579 Y120.517 E28.6046
G1 X143.959 Y121.383 E28.8979
G1 X143.895 Y121.413 E28.9092
G1 X142.940 Y121.809 E29.0743
G1 X142.940 Y142.613 E32.3956
G1 X142.939 Y142.649 E32.4013
G1 X142.913 Y143.175 E32.4854
G1 X142.911 Y143.210 E32.4910
G1 X142.757 Y144.769 E32.7411
G1 X142.747 Y144.838 E32.7523
G1 X142.543 Y145.865 E32.9194
G1 X142.526 Y145.933 E32.9306
G1 X141.996 Y147.688 E33.2233
G1 X141.972 Y147.755 E33.2346
G1 X141.571 Y148.728 E33.4027
G1 X141.540 Y148.792 E33.4140
G1 X140.676 Y150.413 E33.7073
G1 X140.640 Y150.474 E33.7186
G1 X140.055 Y151.351 E33.8869
G1 X140.013 Y151.408 E33.8982
G1 X139.762 Y151.714 E33.9614
G1 X140.685 Y153.941 E34.3461
G1 X140.740 Y154.219 E34.3914
G1 X140.740 Y176.281 E37.9136
G1 X140.685 Y176.559 E37.9588
G1 X139.054 Y180.497 E38.6392
G1 X138.896 Y180.732 E38.6845
G1 X130.882 Y188.746 E40.4938
G1 X130.647 Y188.904 E40.5391
G1 X126.709 Y190.535 E41.2195
G1 X126.431 Y190.590 E41.2648
G1 X36.369 Y190.590 E55.6431
G1 X36.091 Y190.535 E55.6883
G1 X32.153 Y188.904 E56.3688
G1 X31.918 Y188.746 E56.4140
G1 X23.904 Y180.732 E58.2233
G1 X23.746 Y180.497 E58.2686
G1 X22.115 Y176.559 E58.9490
G1 X22.060 Y176.281 E58.9943
G1 X22.060 Y154.219 E62.5165
G1 X22.115 Y153.941 E62.5617
G1 X23.746 Y150.003 E63.2422
G1 X23.904 Y149.768 E63.2874
G1 X23.953 Y149.718 E63.2986
G1 X23.475 Y148.825 E63.4604
G1 X23.444 Y148.761 E63.4717
G1 X23.040 Y147.788 E63.6398
G1 X23.017 Y147.722 E63.6511
G1 X22.481 Y145.965 E63.9443
G1 X22.464 Y145.896 E63.9556
G1 X22.257 Y144.864 E64.1237
G1 X22.247 Y144.794 E64.1350
G1 X22.090 Y143.225 E64.3868
G1 X22.088 Y143.189 E64.3925
G1 X22.061 Y142.657 E64.4775
G1 X22.060 Y142.621 E64.4832
G1 X22.060 Y120.087 E68.0808
G1 X22.061 Y120.052 E68.0865
G1 X22.087 Y119.526 E68.1705
G1 X22.089 Y119.490 E68.1762
G1 X22.243 Y117.932 E68.4262
G1 X22.253 Y117.862 E68.4374
G1 X22.457 Y116.835 E68.6046
G1 X22.474 Y116.767 E68.6158
G1 X23.006 Y115.004 E68.9098
G1 X23.030 Y114.937 E68.9211
G1 X23.435 Y113.959 E69.0902
G1 X23.465 Y113.894 E69.1016
G1 X23.489 Y113.850 E69.1096
G1 X23.467 Y113.808 E69.1171
G1 X23.437 Y113.745 E69.1284
G1 X23.034 Y112.772 E69.2965
G1 X23.010 Y112.705 E69.3078
G1 X22.477 Y110.947 E69.6010
G1 X22.459 Y110.879 E69.6123
G1 X22.254 Y109.846 E69.7804
G1 X22.244 Y109.776 E69.7917
G1 X22.089 Y108.210 E70.0430
G1 X22.087 Y108.175 E70.0486
G1 X22.061 Y107.649 E70.1327
G1 X22.060 Y107.613 E70.1384
G1 X22.060 Y74.587 E75.4110
G1 X22.061 Y74.551 E75.4166
G1 X22.087 Y74.025 E75.5007
G1 X22.089 Y73.990 E75.5064
G1 X22.244 Y72.424 E75.7576
G1 X22.254 Y72.354 E75.7689
G1 X22.459 Y71.321 E75.9370
G1 X22.477 Y71.253 E75.9483
G1 X23.010 Y69.495 E76.2416
G1 X23.034 Y69.428 E76.2528
G1 X23.437 Y68.455 E76.4210
G1 X23.467 Y68.391 E76.4322
G1 X24.333 Y66.771 E76.7256
G1 X24.369 Y66.710 E76.7369
G1 X24.955 Y65.834 E76.9052
G1 X24.997 Y65.777 E76.9165
G1 X26.156 Y64.365 E77.2082
G1 X26.203 Y64.313 E77.2194
G1 X26.941 Y63.574 E77.3861
G1 X26.993 Y63.527 E77.3973
G1 X28.416 Y62.355 E77.6916
G1 X28.473 Y62.312 E77.7029
G1 X29.356 Y61.722 E77.8725
G1 X29.417 Y61.685 E77.8839
G1 X31.041 Y60.817 E78.1779
G1 X31.473 Y61.675 F4800
G92 E0
G1 X31.494 Y61.665 E0.0038 F1500
G1 X32.424 Y61.280 E0.1643
G1 X32.446 Y61.272 E0.1681
G1 X34.159 Y60.752 E0.4538
G1 X34.182 Y60.746 E0.4576
G1 X35.168 Y60.550 E0.6182
G1 X35.191 Y60.547 E0.6220
G1 X36.723 Y60.396 E0.8676
G1 X36.734 Y60.395 E0.8695
G1 X37.237 Y60.370 E0.9498
G1 X37.249 Y60.370 E0.9517
G1 X137.758 Y60.371 E16.9978
G1 X137.769 Y60.371 E16.9997
G1 X138.272 Y60.396 E17.0800
G1 X138.283 Y60.396 E17.0818
G1 X139.809 Y60.547 E17.3265
G1 X139.832 Y60.550 E17.3303
G1 X140.818 Y60.746 E17.4909
G1 X140.841 Y60.752 E17.4946
G1 X142.554 Y61.272 E17.7804
G1 X142.576 Y61.280 E17.7841
G1 X143.506 Y61.665 E17.9447
G1 X143.527 Y61.675 E17.9485
G1 X145.106 Y62.519 E18.2343
G1 X145.126 Y62.531 E18.2381
G1 X145.963 Y63.090 E18.3988
G1 X145.982 Y63.104 E18.4026
G1 X147.366 Y64.240 E18.6884
G1 X147.383 Y64.256 E18.6921
G1 X148.094 Y64.967 E18.8526
G1 X148.110 Y64.984 E18.8564
G1 X149.246 Y66.368 E19.1422
G1 X149.260 Y66.387 E19.1460
G1 X149.819 Y67.224 E19.3067
G1 X149.831 Y67.244 E19.3105
G1 X150.675 Y68.823 E19.5963
G1 X150.685 Y68.844 E19.6001
G1 X151.070 Y69.774 E19.7607
G1 X151.078 Y69.796 E19.7644
G1 X151.598 Y71.509 E20.0502
G1 X151.604 Y71.532 E20.0539
G1 X151.800 Y72.518 E20.2145
G1 X151.803 Y72.541 E20.2183
G1 X151.954 Y74.072 E20.4639
G1 X151.955 Y74.084 E20.4658
G1 X151.980 Y74.587 E20.5461
G1 X151.980 Y74.598 E20.5480
G1 X151.980 Y107.602 E25.8169
G1 X151.980 Y107.613 E25.8187
G1 X151.955 Y108.116 E25.8991
G1 X151.954 Y108.128 E25.9009
G1 X151.803 Y109.659 E26.1466
G1 X151.800 Y109.682 E26.1503
G1 X151.604 Y110.668 E26.3109
G1 X151.598 Y110.691 E26.3147
G1 X151.078 Y112.404 E26.6004
G1 X151.070 Y112.426 E26.6042
G1 X150.685 Y113.356 E26.7648
G1 X150.675 Y113.377 E26.7685
G1 X149.831 Y114.956 E27.0544
G1 X149.819 Y114.976 E27.0581
G1 X149.260 Y115.813 E27.2189
G1 X149.246 Y115.832 E27.2226
G1 X148.110 Y117.216 E27.5084
G1 X148.094 Y117.233 E27.5122
G1 X147.383 Y117.944 E27.6727
G1 X147.366 Y117.960 E27.6764
G1 X145.982 Y119.096 E27.9622
G1 X145.963 Y119.110 E27.9660
G1 X145.126 Y119.669 E28.1267
G1 X145.106 Y119.681 E28.1305
G1 X143.527 Y120.525 E28.4164
G1 X143.506 Y120.535 E28.4201
G1 X142.576 Y120.920 E28.5807
G1 X142.554 Y120.928 E28.5845
G1 X141.980 Y121.103 E28.6803
G1 X141.980 Y142.601 E32.1126
G1 X141.980 Y142.613 E32.1145
G1 X141.955 Y143.116 E32.1948
G1 X141.954 Y143.127 E32.1967
G1 X141.804 Y144.651 E32.4411
G1 X141.801 Y144.674 E32.4448
G1 X141.606 Y145.655 E32.6044
G1 X141.600 Y145.678 E32.6082
G1 X141.084 Y147.388 E32.8934
G1 X141.076 Y147.410 E32.8972
G1 X140.692 Y148.340 E33.0577
G1 X140.682 Y148.361 E33.0615
G1 X139.840 Y149.941 E33.3473
G1 X139.828 Y149.961 E33.3511
G1 X139.269 Y150.799 E33.5119
G1 X139.255 Y150.818 E33.5156
G1 X138.656 Y151.551 E33.6668
G1 X139.762 Y154.221 E34.1282
G1 X139.780 Y154.314 E34.1433
G1 X139.780 Y176.186 E37.6352
G1 X139.762 Y176.279 E37.6503
G1 X138.203 Y180.042 E38.3005
G1 X138.150 Y180.121 E38.3156
G1 X130.271 Y188.000 E40.0947
G1 X130.192 Y188.053 E40.1098
G1 X126.429 Y189.612 E40.7601
G1 X126.336 Y189.630 E40.7751
G1 X36.464 Y189.630 E55.1232
G1 X36.371 Y189.612 E55.1383
G1 X32.608 Y188.053 E55.7885
G1 X32.529 Y188.000 E55.8036
G1 X24.650 Y180.121 E57.5827
G1 X24.597 Y180.042 E57.5978
G1 X23.038 Y176.279 E58.2480
G1 X23.020 Y176.186 E58.2631
G1 X23.020 Y154.314 E61.7551
G1 X23.038 Y154.221 E61.7702
G1 X24.597 Y150.458 E62.4204
G1 X24.650 Y150.379 E62.4355
G1 X25.136 Y149.893 E62.5454
G1 X24.332 Y148.392 E62.8172
G1 X24.322 Y148.371 E62.8210
G1 X23.936 Y147.442 E62.9816
G1 X23.928 Y147.420 E62.9853
G1 X23.407 Y145.708 E63.2711
G1 X23.401 Y145.685 E63.2748
G1 X23.203 Y144.699 E63.4354
G1 X23.200 Y144.675 E63.4391
G1 X23.047 Y143.141 E63.6852
G1 X23.046 Y143.130 E63.6871
G1 X23.021 Y142.621 E63.7684
G1 X23.020 Y142.609 E63.7703
G1 X23.020 Y120.099 E67.3641
G1 X23.020 Y120.087 E67.3660
G1 X23.045 Y119.584 E67.4463
G1 X23.046 Y119.573 E67.4482
G1 X23.196 Y118.049 E67.6926
G1 X23.199 Y118.026 E67.6963
G1 X23.394 Y117.045 E67.8560
G1 X23.400 Y117.022 E67.8597
G1 X23.918 Y115.305 E68.1462
G1 X23.926 Y115.282 E68.1500
G1 X24.313 Y114.347 E68.3115
G1 X24.323 Y114.326 E68.3153
G1 X24.577 Y113.850 E68.4014
G1 X24.325 Y113.377 E68.4871
G1 X24.314 Y113.355 E68.4908
G1 X23.930 Y112.426 E68.6514
G1 X23.922 Y112.404 E68.6552
G1 X23.402 Y110.691 E68.9409
G1 X23.396 Y110.668 E68.9447
G1 X23.200 Y109.682 E69.1053
G1 X23.197 Y109.659 E69.1090
G1 X23.046 Y108.127 E69.3547
G1 X23.045 Y108.116 E69.3565
G1 X23.020 Y107.613 E69.4368
G1 X23.020 Y107.601 E69.4387
G1 X23.020 Y74.598 E74.7076
G1 X23.020 Y74.587 E74.7095
G1 X23.045 Y74.084 E74.7898
G1 X23.046 Y74.073 E74.7917
G1 X23.197 Y72.541 E75.0373
G1 X23.200 Y72.518 E75.0411
G1 X23.396 Y71.532 E75.2016
G1 X23.402 Y71.509 E75.2054
